X: 14
T: They wou'd if they Dare
%C: Mr. Gray
%R: reel, march
B: Mr. Gray "24 Country Dances for the Year 1805" p.4 #2
S: http://folkopedia.efdss.org/images/9/92/ThompsGray_24_1805.PDF  2013-12-2
Z: 2013 John Chambers <jc:trillian.mit.edu>
M: 2/4
L: 1/16
K: G
|:\
G4 B2d2 | g4 d2B2 | c2A2B2G2 | {B}AGAB A2D2 |\
G4 B2d2 | g4 d2B2 | c2A2G2F2 | G4 G4 :|
|:\
c2A2G2F2 | {A}GFGA G2AB | c2A2B2G2 | AGFE D2z2 |\
c2A2G2F2 | {A}GFGA G2AB | c2A2B2G2 | d^cde dB=cA :|
% - - - - - - - - - - - - - - - - - - - - - - - - -
%%begintext align
%% Right & left back again, down the mid:
%% up again & Allemande.
%%endtext
